icons/icn_mail.svg

<svg width="24" xmlns="http://www.w3.org/2000/svg" height="24" id="screenshot-62f3a77a-6931-802e-8006-9c1f0ac1f43b" viewBox="0 0 24 24" xmlns:xlink="http://www.w3.org/1999/xlink" fill="none" version="1.1"><g id="shape-62f3a77a-6931-802e-8006-9c1f0ac1f43b"><g class="frame-container-wrapper"><g class="frame-container-blur"><g class="frame-container-shadows"><g fill="none"><g class="fills" id="fills-62f3a77a-6931-802e-8006-9c1f0ac1f43b"><rect rx="0" ry="0" x="0" y="0" width="24" height="24.000000000000455" transform="matrix(1, 0, 0, 1, 0, 0)" class="frame-background"/></g><g class="frame-children"><g id="shape-62f3a77a-6931-802e-8006-9c1efc31498d" width="24" height="24" version="1.1" rx="0" ry="0" style="fill: rgb(0, 0, 0);"><g id="shape-62f3a77a-6931-802e-8006-9c1efc35020d" style="opacity: 1;"><g class="fills" id="fills-62f3a77a-6931-802e-8006-9c1efc35020d"><path d="M5.261279106140137,2.2772216796875C3.514453172683716,2.2772216796875,2.086474657058716,3.7041015625,2.086474657058716,5.4508056640625L2.086474657058716,18.5460205078125C2.086474657058716,20.2926025390625,3.514453172683716,21.7275390625,5.261279106140137,21.7275390625L18.738819122314453,21.7275390625C20.486621856689453,21.7275390625,21.913135528564453,20.2926025390625,21.913135528564453,18.5460205078125L21.913135528564453,5.4508056640625C21.913135528564453,3.7041015625,20.486621856689453,2.2772216796875,18.738819122314453,2.2772216796875ZM5.261279106140137,3.724365234375L18.738819122314453,3.724365234375C19.664356231689453,3.724365234375,20.389698028564453,4.4178466796875,20.452442169189453,5.323974609375L11.999804496765137,10.958251953125L3.546923875808716,5.323974609375C3.609668016433716,4.4178466796875,4.336718559265137,3.724365234375,5.261279106140137,3.724365234375ZM3.540332078933716,7.4000244140625L11.520800590515137,12.721923828125C11.811572074890137,12.914794921875,12.189745903015137,12.914794921875,12.479296684265137,12.721923828125L20.459766387939453,7.4000244140625L20.459766387939453,18.5460205078125C20.459766387939453,19.513427734375,19.706836700439453,20.2723388671875,18.738819122314453,20.2723388671875L5.261279106140137,20.2723388671875C4.293261528015137,20.2723388671875,3.540332078933716,19.513427734375,3.540332078933716,18.5460205078125Z" style="display: inline; stroke-linecap: round; stroke-linejoin: round; fill: rgb(0, 0, 0); fill-opacity: 1;"/></g></g></g></g></g></g></g></g></g></svg>

<svg fill="none" viewBox="0 0 24 24"><g class="frame-container-wrapper"><g class="frame-container-blur"><g class="frame-container-shadows"><g class="fills"><rect width="24" height="24" class="frame-background" rx="0" ry="0"/></g><g class="frame-children"><path fill="#000" d="M5.2613 2.2772c-1.7468 0-3.1748 1.4269-3.1748 3.1736V18.546c0 1.7466 1.428 3.1815 3.1748 3.1815h13.4775c1.7478 0 3.1743-1.4349 3.1743-3.1815V5.4508c0-1.7467-1.4265-3.1736-3.1743-3.1736Zm0 1.4472h13.4775c.9256 0 1.6509.6934 1.7136 1.5996l-8.4526 5.6343L3.5469 5.324c.0628-.9062.7898-1.5996 1.7144-1.5996ZM3.5403 7.4l7.9805 5.322a.8662.8662 0 0 0 .9585 0L20.4598 7.4v11.146c0 .9674-.753 1.7263-1.721 1.7263H5.2613c-.968 0-1.721-.7589-1.721-1.7263Z" class="fills"/></g></g></g></g></svg>
